X: 39029
T: Swan, The
R: hornpipe
M: 4/4
K: Gmajor
|:"G"G2B/A/G"G"dGBd|"G"g2fg"Em"egdB|"Am"cAec"G"B/c/dGB|"D"ADFA"G"dBcA|
"G"G2B/A/G"G"dGBd|"G"g2fg"Em"egdB|"Am"cAec"G"B/c/dGB|"D"ADFA"G"G3z:|
|:"G"gGBg"Am"fAce|"Em"edB/A/G"D"ADF/E/D|"G"GBB/B/B"C"ceag|"Am"f/g/aea"A"^cdef|
"G"gGBg"Am"fAce|"Em"edB/A/G"D"ADF/E/D|"G"GBB/B/B"C"ceag|"D"f/e/dc/B/A"G"GABd:|
"G"~gggb"G"gdBd|"C"cBAG"D"FAdc|"G"BGgf"A"e^cag|"Am"f/g/aea"A"^cdef|
"G"gGBg"Am"fAce|"Em"edB/A/G"D"ADF/E/D|"G"GBB/B/B"C"ceag|"D"f/e/dc/B/A"G"GABd|
"G"~gggb"G"gdBd|"C"cBAG"D"FAdc|"G"BGgf"A"e^cag|"Am"f/g/aea"A"^cdef|
"G"gGBg"Am"fAce|"Em"edB/A/G"D"ADF/E/D|"G"GBB/B/B"C"ceag|"D"f/e/dc/B/A"G"G3z|

